papirus/48x48/apps/subsonic.svg

<svg height="48" viewBox="0 0 48 48.000001" width="48" xmlns="http://www.w3.org/2000/svg" xmlns:xlink="http://www.w3.org/1999/xlink"><linearGradient id="a" gradientUnits="userSpaceOnUse" x1="4" x2="12" y1="1032.3622" y2="1032.3622"><stop offset="0" stop-opacity="0"/><stop offset="1"/></linearGradient><g transform="translate(0 -1004.3622)"><g transform="translate(-2 3.0000174)"><rect fill="#41b941" height="10" rx="1.4059999" ry="1.7465838" width="3" x="14" y="1014.3622"/><path d="m15.40625 10c-.778924 0-1.40625.778486-1.40625 1.746094v1c0-.967608.627326-1.746094 1.40625-1.746094h.1875c.778924 0 1.40625.778486 1.40625 1.746094v-1c0-.967608-.627326-1.746094-1.40625-1.746094z" fill="#fff" opacity=".2" transform="translate(0 1004.3622)"/></g><path d="m22 1016.3622c-1.108 0-2 .892-2 2v2.084c-3.710977 1.1857-7 3.916-8 5.916-1-2-6.9609375-2-6.9609375-2v5h-1.0390625v6h1.0390625v5c-.039063 0 5.9609375-1 6.9609375-3 1 2 7 5 15 5 8 0 17-4.3726 17-11-.0087-4.7098-3.919663-8.9806-10-10.9199v-2.0801c0-1.108-.892-2-2-2z" fill="#ffca1d"/><path d="m22 12c-1.108 0-2 .892-2 2v1c0-1.108.892-2 2-2h10c1.108 0 2 .892 2 2v-1c0-1.108-.892-2-2-2zm12 4.080078v1c5.891592 1.879101 9.735004 5.948951 9.976562 10.484375.014561-.186257.023438-.374439.023438-.564453-.0087-4.7098-3.919663-8.980622-10-10.919922zm-14 .0039c-3.710977 1.185706-7 3.916022-8 5.916022-1-2-6.9609375-2-6.9609375-2v1c0 0 5.9609375 0 6.9609375 2 1-2 4.289023-4.730316 8-5.916016z" fill="#fff" opacity=".2" transform="translate(0 1004.3622)"/><circle cx="27" cy="1032.3622" opacity=".2" r="3"/><circle cx="35" cy="1032.3622" opacity=".2" r="3"/><circle cx="19" cy="1032.3622" opacity=".2" r="3"/><circle cx="27" cy="1031.3622" fill="#fff" r="3"/><circle cx="35" cy="1031.3622" fill="#fff" r="3"/><circle cx="19" cy="1031.3622" fill="#fff" r="3"/><path d="m12 1026.3622c-1-2-6.9609375-2-6.9609375-2v5h-1.0390625v6h1.0390625v5c-.039063 0 5.9609375-1 6.9609375-3z" fill="url(#a)" opacity=".1"/><path d="m43.976562 26.564453c-.493295 6.310108-9.205929 10.435547-16.976562 10.435547-8 0-14-3-15-5-1 2-7.0000005 3-6.9609375 3v1c-.039063 0 5.9609375-1 6.9609375-3 1 2 7 5 15 5 8 0 17-4.3726 17-11-.00027-.146201-.0157-.290249-.02344-.435547z" opacity=".3" transform="translate(0 1004.3622)"/></g></svg>

<?xml version="1.0" encoding="UTF-8" standalone="no"?>
<!-- Created with Inkscape (http://www.inkscape.org/) -->

<svg
   xmlns:dc="http://purl.org/dc/elements/1.1/"
   xmlns:cc="http://creativecommons.org/ns#"
   xmlns:rdf="http://www.w3.org/1999/02/22-rdf-syntax-ns#"
   xmlns:svg="http://www.w3.org/2000/svg"
   xmlns="http://www.w3.org/2000/svg"
   xmlns:xlink="http://www.w3.org/1999/xlink"
   xmlns:sodipodi="http://sodipodi.sourceforge.net/DTD/sodipodi-0.dtd"
   xmlns:inkscape="http://www.inkscape.org/namespaces/inkscape"
   width="48"
   height="48"
   viewBox="0 0 48 48.000001"
   id="svg5470"
   version="1.1"
   inkscape:version="0.91 r13725"
   sodipodi:docname="subsonic.svg">
  <defs
     id="defs5472">
    <linearGradient
       inkscape:collect="always"
       id="linearGradient6236">
      <stop
         id="stop6240"
         offset="0"
         style="stop-color:#000000;stop-opacity:0;" />
      <stop
         id="stop6238"
         offset="1"
         style="stop-color:#000000;stop-opacity:1;" />
    </linearGradient>
    <linearGradient
       inkscape:collect="always"
       xlink:href="#linearGradient6236"
       id="linearGradient6242"
       x1="4"
       y1="1032.3622"
       x2="12"
       y2="1032.3622"
       gradientUnits="userSpaceOnUse" />
  </defs>
  <sodipodi:namedview
     id="base"
     pagecolor="#ffffff"
     bordercolor="#666666"
     borderopacity="1.0"
     inkscape:pageopacity="0.0"
     inkscape:pageshadow="2"
     inkscape:zoom="1"
     inkscape:cx="22.200488"
     inkscape:cy="18.251026"
     inkscape:document-units="px"
     inkscape:current-layer="layer1"
     showgrid="false"
     units="px"
     inkscape:window-width="1600"
     inkscape:window-height="847"
     inkscape:window-x="0"
     inkscape:window-y="0"
     inkscape:window-maximized="1">
    <inkscape:grid
       type="xygrid"
       id="grid6095" />
  </sodipodi:namedview>
  <metadata
     id="metadata5475">
    <rdf:RDF>
      <cc:Work
         rdf:about="">
        <dc:format>image/svg+xml</dc:format>
        <dc:type
           rdf:resource="http://purl.org/dc/dcmitype/StillImage" />
        <dc:title></dc:title>
      </cc:Work>
    </rdf:RDF>
  </metadata>
  <g
     inkscape:label="Layer 1"
     inkscape:groupmode="layer"
     id="layer1"
     transform="translate(0,-1004.3622)">
    <g
       id="g6228"
       transform="translate(-2,3.0000174)">
      <rect
         ry="1.7465838"
         rx="1.4059999"
         y="1014.3622"
         x="14"
         height="10"
         width="3"
         id="rect6068"
         style="opacity:1;fill:#41b941;fill-opacity:1;stroke:none;stroke-width:1;stroke-linecap:round;stroke-linejoin:round;stroke-miterlimit:4;stroke-dasharray:none;stroke-opacity:1" />
      <path
         id="rect6223"
         transform="translate(0,1004.3622)"
         d="M 15.40625,10 C 14.627326,10 14,10.778486 14,11.746094 l 0,1 C 14,11.778486 14.627326,11 15.40625,11 l 0.1875,0 C 16.372674,11 17,11.778486 17,12.746094 l 0,-1 C 17,10.778486 16.372674,10 15.59375,10 l -0.1875,0 z"
         style="opacity:0.2;fill:#ffffff;fill-opacity:1;stroke:none;stroke-width:1;stroke-linecap:round;stroke-linejoin:round;stroke-miterlimit:4;stroke-dasharray:none;stroke-opacity:1"
         inkscape:connector-curvature="0" />
    </g>
    <path
       style="opacity:1;fill:#ffca1d;fill-opacity:1;stroke:none;stroke-width:1;stroke-linecap:round;stroke-linejoin:round;stroke-miterlimit:4;stroke-dasharray:none;stroke-opacity:1"
       d="m 22,1016.3622 c -1.108,0 -2,0.892 -2,2 l 0,2.084 c -3.710977,1.1857 -7,3.916 -8,5.916 -1,-2 -6.9609375,-2 -6.9609375,-2 l 0,5 -1.0390625,0 0,6 1.0390625,0 0,5 c -0.039063,0 5.9609375,-1 6.9609375,-3 1,2 7,5 15,5 8,0 17,-4.3726 17,-11 -0.0087,-4.7098 -3.919663,-8.9806 -10,-10.9199 l 0,-2.0801 c 0,-1.108 -0.892,-2 -2,-2 z"
       id="path5454"
       inkscape:connector-curvature="0"
       sodipodi:nodetypes="ssccccccccccccsss" />
    <path
       style="opacity:0.2;fill:#ffffff;fill-opacity:1;stroke:none;stroke-width:1;stroke-linecap:round;stroke-linejoin:round;stroke-miterlimit:4;stroke-dasharray:none;stroke-opacity:1"
       d="m 22,12 c -1.108,0 -2,0.892 -2,2 l 0,1 c 0,-1.108 0.892,-2 2,-2 l 10,0 c 1.108,0 2,0.892 2,2 l 0,-1 c 0,-1.108 -0.892,-2 -2,-2 z m 12,4.080078 0,1 c 5.891592,1.879101 9.735004,5.948951 9.976562,10.484375 C 43.991123,27.378196 44,27.190014 44,27 43.9913,22.2902 40.080337,18.019378 34,16.080078 Z m -14,0.0039 C 16.289023,17.269684 13,20 12,22 11,20 5.0390625,20 5.0390625,20 l 0,1 C 5.0390625,21 11,21 12,23 c 1,-2 4.289023,-4.730316 8,-5.916016 z"
       transform="translate(0,1004.3622)"
       id="path6252"
       inkscape:connector-curvature="0"
       sodipodi:nodetypes="sscsscssscccccccccccc" />
    <circle
       r="3"
       cy="1032.3622"
       cx="27"
       id="circle6084"
       style="opacity:0.2;fill:#000000;fill-opacity:1;stroke:none;stroke-width:1;stroke-linecap:round;stroke-linejoin:round;stroke-miterlimit:4;stroke-dasharray:none;stroke-opacity:1" />
    <circle
       style="opacity:0.2;fill:#000000;fill-opacity:1;stroke:none;stroke-width:1;stroke-linecap:round;stroke-linejoin:round;stroke-miterlimit:4;stroke-dasharray:none;stroke-opacity:1"
       id="circle6086"
       cx="35"
       cy="1032.3622"
       r="3" />
    <circle
       style="opacity:0.2;fill:#000000;fill-opacity:1;stroke:none;stroke-width:1;stroke-linecap:round;stroke-linejoin:round;stroke-miterlimit:4;stroke-dasharray:none;stroke-opacity:1"
       id="circle6088"
       cx="19"
       cy="1032.3622"
       r="3" />
    <circle
       style="opacity:1;fill:#ffffff;fill-opacity:1;stroke:none;stroke-width:1;stroke-linecap:round;stroke-linejoin:round;stroke-miterlimit:4;stroke-dasharray:none;stroke-opacity:1"
       id="path6070"
       cx="27"
       cy="1031.3622"
       r="3" />
    <circle
       r="3"
       cy="1031.3622"
       cx="35"
       id="circle6072"
       style="opacity:1;fill:#ffffff;fill-opacity:1;stroke:none;stroke-width:1;stroke-linecap:round;stroke-linejoin:round;stroke-miterlimit:4;stroke-dasharray:none;stroke-opacity:1" />
    <circle
       r="3"
       cy="1031.3622"
       cx="19"
       id="circle6074"
       style="opacity:1;fill:#ffffff;fill-opacity:1;stroke:none;stroke-width:1;stroke-linecap:round;stroke-linejoin:round;stroke-miterlimit:4;stroke-dasharray:none;stroke-opacity:1" />
    <path
       sodipodi:nodetypes="ccccccccc"
       inkscape:connector-curvature="0"
       id="path6234"
       d="m 12,1026.3622 c -1,-2 -6.9609375,-2 -6.9609375,-2 l 0,5 -1.0390625,0 0,6 1.0390625,0 0,5 c -0.039063,0 5.9609375,-1 6.9609375,-3 z"
       style="opacity:0.1;fill:url(#linearGradient6242);fill-opacity:1;stroke:none;stroke-width:1;stroke-linecap:round;stroke-linejoin:round;stroke-miterlimit:4;stroke-dasharray:none;stroke-opacity:1" />
    <path
       style="opacity:0.3;fill:#000000;fill-opacity:1;stroke:none;stroke-width:1;stroke-linecap:round;stroke-linejoin:round;stroke-miterlimit:4;stroke-dasharray:none;stroke-opacity:1"
       d="M 43.976562,26.564453 C 43.483267,32.874561 34.770633,37 27,37 19,37 13,34 12,32 11,34 4.9999995,35 5.0390625,35 l 0,1 C 4.9999995,36 11,35 12,33 c 1,2 7,5 15,5 8,0 17,-4.3726 17,-11 -2.7e-4,-0.146201 -0.0157,-0.290249 -0.02344,-0.435547 z"
       transform="translate(0,1004.3622)"
       id="path6257"
       inkscape:connector-curvature="0"
       sodipodi:nodetypes="csccccscc" />
  </g>
</svg>
